packages/dnb-eufemia/assets/icons/train.svg

<svg width="16" height="16" viewBox="0 0 16 16" fill="none" xmlns="http://www.w3.org/2000/svg">
<path d="M1.87671 12.1889C1.64419 12.1889 1.4212 12.0965 1.25678 11.9321C1.09237 11.7677 1 11.5447 1 11.3122V2.62222C1 2.4572 1.06556 2.29893 1.18224 2.18224C1.29893 2.06556 1.4572 2 1.62222 2H7.37778M7.37778 2V7.5M7.37778 2H8.31111M7.37778 7.5H13.7556C14.0856 7.5 14.4021 7.63111 14.6355 7.86449C14.8689 8.09787 15 8.4144 15 8.74444V10.9444C15 11.2745 14.8689 11.591 14.6355 11.8244C14.4021 12.0578 14.0856 12.1889 13.7556 12.1889H13.5011M7.37778 7.5H3.5V4.5H7.37778M4.88889 12.7333C4.88889 13.5924 4.19244 14.2889 3.33333 14.2889C2.47422 14.2889 1.77778 13.5924 1.77778 12.7333C1.77778 11.8742 2.47422 11.1778 3.33333 11.1778C4.19244 11.1778 4.88889 11.8742 4.88889 12.7333ZM9.24444 12.7333C9.24444 13.5924 8.548 14.2889 7.68889 14.2889C6.82978 14.2889 6.13333 13.5924 6.13333 12.7333C6.13333 11.8742 6.82978 11.1778 7.68889 11.1778C8.548 11.1778 9.24444 11.8742 9.24444 12.7333ZM13.6 12.7333C13.6 13.5924 12.9036 14.2889 12.0444 14.2889C11.1853 14.2889 10.4889 13.5924 10.4889 12.7333C10.4889 11.8742 11.1853 11.1778 12.0444 11.1778C12.9036 11.1778 13.6 11.8742 13.6 12.7333Z" stroke="black" stroke-width="1.5" stroke-linecap="round" stroke-linejoin="round"/>
</svg>

<svg width="16" height="16" viewBox="0 0 16 16" fill="none" xmlns="http://www.w3.org/2000/svg"><path d="M1.877 12.189A.877.877 0 0 1 1 11.312v-8.69A.622.622 0 0 1 1.622 2h5.756m0 0v5.5m0-5.5h.933m-.933 5.5h6.378A1.244 1.244 0 0 1 15 8.744v2.2a1.244 1.244 0 0 1-1.244 1.245H13.5M7.378 7.5H3.5v-3h3.878m-2.49 8.233a1.556 1.556 0 1 1-3.11 0 1.556 1.556 0 0 1 3.11 0Zm4.356 0a1.556 1.556 0 1 1-3.11 0 1.556 1.556 0 0 1 3.11 0Zm4.356 0a1.556 1.556 0 1 1-3.111 0 1.556 1.556 0 0 1 3.111 0Z" stroke="#000" stroke-width="1.5" stroke-linecap="round" stroke-linejoin="round"/></svg>
